X:1
T:Recibe Señor
T:Recibe Señor - Intro 
T:Misa - Ofertorio (Cuaresma)
T:Jésed
C:Jésed
%%score 1 2 3
L:1/8
Q:1/4=80
M:4/4
K:D
V:1 treble transpose=-14 nm="Tenor Saxophone" snm="T. Sax."
V:2 treble transpose=-9 nm="Alto Saxophone" snm="A. Sax."
V:3 tab stafflines=6 strings=E2,A2,D3,G3,B3,E4 nm="Electric Guitar" snm="El. Guit."
V:1
[K:E] G/F/E/F/ BE FEBE | G/F/E/F/ BE FEBE | G/F/E/F/ BE FEBE | G/F/E/F/ BE FEBE |] %4
V:2
[K:B] d/c/B/c/ fB cBfB | d/c/B/c/ fB cBfB | d/c/B/c/ fB cBfB | d/c/B/c/ fB cBfB |] %4
V:3
"D" !1!F/!1!E/!2!D/!1!E/ !1!A!2!D !1!E!2!D!1!A!2!D | %1
"C" !1!F/!1!E/!2!D/!1!E/ !1!A!2!D !1!E!2!D!1!A!2!D | %2
"G" !1!F/!1!E/!2!D/!1!E/ !1!A!2!D !1!E!2!D!1!A!2!D | %3
"A" !1!F/!1!E/!2!D/!1!E/ !1!A!2!D !1!E!2!D!1!A!2!D |] %4

